packages/core/src/svgs/tokens/mono/ROME.svg

<svg width="24" height="24" viewBox="0 0 24 24" fill="none" xmlns="http://www.w3.org/2000/svg">
<path d="M2.21935 3.63305C3.70967 4.20079 3.93548 5.1879 3.93548 12.0588C3.93548 18.9298 3.79355 19.3814 2.13548 20.2524C2.0387 20.3169 2 20.4072 2 20.4072C2.09032 20.6202 3.72903 20.6718 7.46452 20.6718C12.6581 20.6718 13.2452 20.633 12.4193 20.1814C11.8929 19.9024 11.4565 19.4796 11.1613 18.962C10.6903 17.8654 10.7743 6.10402 11.2 4.92337C11.5935 3.97498 11.5355 3.93628 13.1484 4.08467C16.6515 4.50402 18.2259 6.43951 18.2259 10.4654C18.2259 13.2717 17.5161 14.8653 15.7483 16.2331C14.8839 16.8783 14.5226 17.562 14.3291 18.9298L14.0646 20.7105H22V18.5492C22 16.4589 21.9613 16.4202 21.3677 17.2201C20.858 17.9427 20.4258 18.0588 18.2259 18.0588C15.7096 18.0588 14.8839 17.562 16.6515 17.1428C18.071 16.8007 20.071 15.0589 20.6646 13.6137C21.4903 11.7556 21.3742 8.60725 20.3871 7.08467C18.3419 3.85886 16.5484 3.2524 8.09678 3.29112C3.92258 3.29112 1.66451 3.40725 2.21935 3.63305ZM8.2129 4.62014C8.32903 4.96209 8.45161 8.34273 8.45161 12.1686C8.45161 17.7169 8.32903 19.1943 7.89677 19.5363C6.8 20.4072 6.27096 18.7362 6.27096 11.9879C6.27096 5.91048 6.75484 4.0137 7.6258 4.0137C7.81935 4.0137 8.09678 4.27821 8.20646 4.62014H8.2129Z" fill="white"/>
</svg>

<svg xmlns="http://www.w3.org/2000/svg" width="24" height="24" fill="none" viewBox="0 0 24 24">
    <path fill="#fff" d="M2.22 3.633c1.49.568 1.715 1.555 1.715 8.426 0 6.87-.141 7.322-1.8 8.193-.096.065-.135.155-.135.155.09.213 1.729.265 5.465.265 5.193 0 5.78-.039 4.954-.49a3.14 3.14 0 0 1-1.258-1.22c-.47-1.097-.387-12.858.039-14.039.394-.948.336-.987 1.948-.838 3.503.419 5.078 2.355 5.078 6.38 0 2.807-.71 4.4-2.478 5.768-.864.645-1.225 1.329-1.419 2.697l-.264 1.78H22v-2.16c0-2.091-.039-2.13-.632-1.33-.51.723-.942.839-3.142.839-2.516 0-3.342-.497-1.575-.916 1.42-.342 3.42-2.084 4.014-3.53.825-1.857.71-5.006-.278-6.528-2.045-3.226-3.839-3.833-12.29-3.794-4.174 0-6.432.116-5.878.342m5.993.987c.116.342.239 3.723.239 7.549 0 5.548-.123 7.025-.555 7.367-1.097.871-1.626-.8-1.626-7.548 0-6.078.484-7.974 1.355-7.974.193 0 .47.264.58.606z"/>
</svg>
